X:58
T:Polo fr{\aa}n Lyngs{\aa}sa
R:sl-polska
H:ur Johan Fogelbergs notbok fr{\aa}n 1824. Johan Fogelberg var f\"odd 1806
H:och bodde i Lunnag{\aa}rd, Arings{\aa}s socken.
A:Sm{\aa}land
Z:id:hn-sp-58
M:3/4
L:1/16
K:Em
B2e2 e2ef gfge | f2fd B2Bd fgaf | agbg gfaf fede |1 Bedf e2eB G2E2 :|
[2 Bedf f4 e4 || gbag fagf egfe | defg afge d4 | GABc defg agbg |
d2de dcBc B4 | B2e2 e2ef gfge | f2fd B2Bd fgaf | agbg gfaf fede | 
Bedf f4 e4 ||

